X: 1
T: the Sound of Sleat
C: D.MacKinnon
R: reel
Z: John Chambers <jc:trillian.mit.edu>
M: C|
L: 1/8
K: D
f \
"A"|: "D"A2AB "Bm"Bdd2 | "Em"e2ed "A7"eff2 |  "D"A2AB "Bm"Bdde | "Em"fded "A7"B2A2 :|
"B"|: "D"f2fe faa2 | "Em"e2de "A7"fdBA  |1 "D"f2fe faae | "Em"fded "A7"B2A2 \
                                       :|2 "Em"e2ed "A7"effa | "D"fded "A7"B2A2 |]
"C"|: "D"A2AG "G"B2BA | "D"d2df "A7"edef | "D"A2AG "G"B2BA | "D"fded "A7"B2A2 :|
"D"|: "D"a2fa afa2 | "Em"e2de "A7"fdBA  |1 "D"a2fa afa2 | "D"fded "A7"B2A2 \
                                       :|2 "D"d2df "Em"edef | "D"fded "A7"B2A2 |]


